!!!OTL: Der grausame Bruder.
!!!OTL-incipit: Es fuhr ein Fuhrknecht ueber'n Rhein,
!!!ARE: Europa, Mitteleuropa, Deutschland / France, Elsass
!!!YOR: 3, S. 243
!!    1932 gedruckt in Metz
!!!SCT: Q0068A
!!!TXL: @@DE
!!!YEM: Copyright 1995, estate of Helmut Schaffrath.
**kern	**text
*ICvox	*
*M2/4	*
*k[b-e-]	*
*g:	*
{8d	Es
=1	=1
4g	fuhr
4b-	ein
=2	=2
4a	Fuhrknecht
4dd	.
=3	=3
8cc	über'n
8b-	.
8a}	Rhein,
{8d	es
=4	=4
4g	fuhr
4b-	ein
=5	=5
4a	Fuhrknecht
4dd	.
=6	=6
8cc	über'n
8b-	.
8a}	Rhein,
{8b-	er
=7	=7
8cc	kehrt'
8cc	beim
8cc	jung'n
8dd	Pfalʒ-
=8	=8
8b-	gra-
8a	fen
8g}	ein,
{8d	er
=9	=9
4g	kehrt'
4a	beim
=10	=10
8b-L	jung'n
8ccJ	.
4dd	Pfalʒ-
=11	=11
4b-	-gra-
8aL	.
8gJ	-fen
=12	=12
4g	ein.
8r}	.
==	==
!!!AGN: Ballade, Schwangerschaft, Moral, Mord
!!!ONB: ESAC (Essen Associative Code) Database: BALLADE
!!!AMT: simple duple
!!!AIN: vox
!!!EED: Helmut Schaffrath
!!!EEV: 1.0
!!@@COMMENT:"Text:Aufzeichnung Goethes a.d.Elsaß, 
!!Mel.:E10671, nach S. Neudorf's Ms. in v.d.Hagens Samml."
!!@@END:
!!!source: Deutsche Volkslieder mit ihren Melodien. Herausgegeben vom Deutschen Volksliedarchiv. Dritter Band Balladen. Berlin 1954.
!!!page: 243
!!!ENC: Anna Maria Matuszewska
!!!EEV: 2025/02/21
*-	*-
